X: 7279
T: Clarkson's
R: reel
M: 4/4
K: Dmajor
|:D2 DE FEDF|A3F Acdc|BABc dBAF|EGFD EFGE|
D2 DE FEDF|A3F A2 dc|(3Bcd ce dBAF|EGFE FD D2:|
|:fddf afdf|edcd ef (3gfe|fddf afdf|edef d2 (3ABc|
defg afdf|edcd ef (3gfe|(3fga ec dBAF|GBAG FD D2:|

